svg/filter-1.svg

<svg width="24" height="24" viewBox="0 0 24 24" fill="none" xmlns="http://www.w3.org/2000/svg">
<path d="M4 7C4 6.44772 4.44772 6 5 6H19C19.5523 6 20 6.44772 20 7C20 7.55228 19.5523 8 19 8H5C4.44772 8 4 7.55228 4 7ZM6 12C6 11.4477 6.44772 11 7 11H17C17.5523 11 18 11.4477 18 12C18 12.5523 17.5523 13 17 13H7C6.44772 13 6 12.5523 6 12ZM8 17C8 16.4477 8.44772 16 9 16H15C15.5523 16 16 16.4477 16 17C16 17.5523 15.5523 18 15 18H9C8.44772 18 8 17.5523 8 17Z" fill="#0D0D0D"/>
</svg>

<svg width="24" height="24" fill="none" xmlns="http://www.w3.org/2000/svg"><path d="M4 7a1 1 0 011-1h14a1 1 0 110 2H5a1 1 0 01-1-1zm2 5a1 1 0 011-1h10a1 1 0 110 2H7a1 1 0 01-1-1zm2 5a1 1 0 011-1h6a1 1 0 110 2H9a1 1 0 01-1-1z" fill="#0D0D0D"/></svg>
